X: 1
T: Washington's March No. 2
T: the President's New March
O: < 1794
R: march
Z: 2011 John Chambers <jc:trillian.mit.edu>
S: http://www.americanrevolution.org/washingtonsmusic.html
M: C
L: 1/8
K: G
|: G2 D>G B2 G>B | d2 B>d g4 | e2 g>e d2 g>e | d>c B>A B2 G2 |
e2 g>e d2 g>e | d>c B>A B2 G2 | B/c/B/c/ dd ed cB | B2 A>A A2 z2 |
B/c/B/c/ dd ed cB | B2 A>A A2 g2 | g>f e>d f>e d>^c | d2 d>d d2 z2 :|
|: A/B/A/B/ =cc dc BA | B/c/B/c/ dd ed cB | A/B/A/B/ cc dc BA | B2 A>A A2 z2 |
d/e/d/c/ B/c/B/A/ ^G2 G2 | d>=f e>d e4 | e/^f/e/d/ ^c/d/c/B/ A2 A2 | e>g f>e f2 de/f/ |
g2 d>d d2 a/g/f/g/ | f2 c>c c2 de/f/ | g>g f>e d>c B>A | G2 G>G G2 z2 :|
